static/characters/youkanman/back-sitting-alt.svg

<svg width="160" height="182" xmlns="http://www.w3.org/2000/svg" xml:space="preserve" style="fill-rule:evenodd;clip-rule:evenodd;stroke-linecap:round;stroke-linejoin:round;stroke-miterlimit:1.5"><path d="m542.173 844.83.977-139.625 145.559-72.779 45.537 22.827 1.221 137.42-148.739 76.039-44.555-23.882Z" style="fill:#6c4444;fill-opacity:.95;stroke:#000;stroke-opacity:.95;stroke-width:2.77px" transform="matrix(-.36096 0 0 .36096 318.047 -181.088)"/><path style="fill:#5e3b3b" d="M1566 856.517h86.762v86.762H1566z" transform="matrix(-.04835 -.02418 0 .04835 155.771 58.66)"/><path style="fill:#5e3b3b" d="M791.193 856.517h86.762v86.762h-86.762z" transform="matrix(-.04835 -.02418 0 .04835 151.5 56.001)"/><path d="m1222.99 1088.56-185.63-336.965 38.33-22.195 46.41 82.727h201.77l46.41-82.727 38.34 22.195-185.63 336.965Zm-80.71-234.061 80.71 143.258 80.7-143.258h-161.41Z" style="fill:#5e3b3b;fill-rule:nonzero" transform="matrix(-.04835 -.02418 0 .04835 154.137 58.978)"/><path d="M547.667 1527.12c151.871 176.6 329.653 364.07 373.368 158.63 1.698-13.06 9.491-36.86 36.473-15.81 2.802 2.18 19.918 32.33 19.918 32.33-36.519 130.59-94.101 158.94-195.456 100.89-33.193-19.02-247.901-222.58-280.698-281.39" style="fill:#5e3b3b;fill-rule:nonzero" transform="matrix(-.04835 -.02418 0 .04835 145.167 61.78)"/><path d="M547.667 1527.12c151.871 176.6 329.653 364.07 373.368 158.63 1.698-13.06 9.491-36.86 36.473-15.81 2.802 2.18 19.918 32.33 19.918 32.33-36.519 130.59-94.101 158.94-195.456 100.89-33.193-19.02-247.901-222.58-280.698-281.39" style="fill:#5e3b3b;fill-rule:nonzero" transform="matrix(-.04835 -.02418 0 .04835 124.45 51.328)"/><path d="m702.177 596.153 512.733 2.672v41.795H700.395l1.782-44.467Z" style="fill-rule:nonzero" transform="matrix(-.04835 -.02418 0 .04835 138.844 67.354)"/><path d="m702.177 596.153 512.733 2.672v41.795H700.395l1.782-44.467Z" style="fill-rule:nonzero" transform="matrix(-.04835 -.02418 0 .04835 129.178 47.138)"/><path d="m702.177 596.153 512.733 2.672v41.795H700.395l1.782-44.467Z" style="fill-rule:nonzero" transform="matrix(-.04835 -.02418 0 .04835 154.02 59.32)"/><path d="m702.177 596.153 512.733 2.672v41.795H700.395l1.782-44.467Z" style="fill:#5e3b3b;fill-rule:nonzero" transform="matrix(-.04835 -.02418 0 .04835 154.73 109.38)"/><path d="m702.177 596.153 512.733 2.672v41.795H700.395l1.782-44.467Z" style="fill:#5e3b3b;fill-rule:nonzero" transform="matrix(-.04835 -.02418 0 .04835 129.853 96.942)"/><path d="m702.177 596.153 512.733 2.672v41.795H700.395l1.782-44.467Z" style="fill-rule:nonzero" transform="matrix(-.0286 .01411 0 .04835 142.032 33.193)"/><path d="m702.177 596.153 512.733 2.672v41.795H700.395l1.782-44.467Z" style="fill-rule:nonzero" transform="matrix(-.0286 .01411 0 .04835 88.732 7.801)"/><path d="m702.177 596.153 512.733 2.672v41.795H700.395l1.782-44.467Z" style="fill:#5e3b3b;fill-rule:nonzero" transform="matrix(-.0286 .01411 0 .04835 89.476 57.57)"/><path d="m702.177 596.153 512.733 2.672v41.795H700.395l1.782-44.467Z" style="fill-rule:nonzero" transform="matrix(-.0286 .01411 0 .04835 142.805 84.235)"/><path d="m123.204 99.079-1.95-.976v24.78l1.95.975zm-.127-25.077-1.95-.976v24.78l1.95.975z"/><path style="fill:#5e3b3b" d="M625.74 644.656h40.354v512.502H625.74z" transform="matrix(-.04835 -.02418 0 .04835 100.681 33.71)"/><path style="fill:#5e3b3b" d="M625.74 644.656h40.354v512.502H625.74z" transform="matrix(-.04835 -.02418 0 .04835 100.681 57.321)"/><path d="m559.503 766.807 2.767-5.108 4.712 4.898c-.295 4.315.67 9.371 1.077 13.063 2.439 22.149-1.545 55.035-15.382 57.065 0 0-4.732-5.319-1.971-7.119 8.513-5.55 16.255-28.52 8.797-62.799Z" style="fill:#5e3b3b" transform="matrix(-.36096 0 0 .36096 264.523 -205.205)"/><path d="m1216.93 597.043 516.3 2.673-1.78 40.904h-514.52v-43.577Z" style="fill-rule:nonzero" transform="matrix(-.04835 -.02418 0 .04835 139.258 67.799)"/><path d="m116.568 95.74-1.478-1.885-1.701 1.768c.106 1.557-.242 3.382-.389 4.715-.88 7.995.558 19.865 5.552 20.598 0 0 1.185-2.235.301-3.031-2.5-2.25-5.626-8.916-2.285-22.166v.001ZM53.43 55.807l-1.951-.976v24.78l1.95.975z"/><path d="M664.076 1651.5H1178.6v43.58l-514.524-3.57v-40.01Z" style="fill-rule:nonzero" transform="matrix(-.04835 -.02418 0 .04835 136.808 66.603)"/><path d="M1180.61 1651.5h514.52l-3.56 36.45-505.61 8.02-5.35-44.47Z" style="fill-rule:nonzero" transform="matrix(-.04835 -.02418 0 .04835 136.22 65.964)"/><path d="m53.55 80.735-1.952-.976v24.78l1.951.975z"/><path d="M39.285 16.87S22.412 26.874 20.898 31.533c-3.132 9.639 9.998 22.291 20.926 25.135 17.921 4.665 35.445-5.527 16.483-25.928-3.335-3.589-19.022-13.87-19.022-13.87Z" style="fill:url(#a)" transform="matrix(-.68154 -.34077 0 .68154 121.717 86.254)"/><path d="m107.237 82.759-1.95-.976v24.78l1.95.975z"/><path d="m107.237 107.21-1.95-.975v24.78l1.95.975z"/><defs><radialGradient id="a" cx="0" cy="0" r="1" gradientUnits="userSpaceOnUse" gradientTransform="matrix(23.0357 0 0 20.4577 49.175 43.992)"><stop offset="0" style="stop-color:#8a7a48;stop-opacity:1"/><stop offset=".43" style="stop-color:#816d47;stop-opacity:1"/><stop offset="1" style="stop-color:#6c5044;stop-opacity:1"/></radialGradient></defs></svg>

<?xml version="1.0" encoding="UTF-8" standalone="no"?>
<!DOCTYPE svg PUBLIC "-//W3C//DTD SVG 1.1//EN" "http://www.w3.org/Graphics/SVG/1.1/DTD/svg11.dtd">
<svg width="160" height="182" viewBox="0 0 160 182" version="1.1" xmlns="http://www.w3.org/2000/svg" xmlns:xlink="http://www.w3.org/1999/xlink" xml:space="preserve" xmlns:serif="http://www.serif.com/" style="fill-rule:evenodd;clip-rule:evenodd;stroke-linecap:round;stroke-linejoin:round;stroke-miterlimit:1.5;">
    <g>
        <g transform="matrix(-0.36096,0,0,0.36096,318.047,-181.088)">
            <path d="M542.173,844.83L543.15,705.205L688.709,632.426L734.246,655.253L735.467,792.673L586.728,868.712L542.173,844.83Z" style="fill:rgb(108,68,68);fill-opacity:0.95;stroke:black;stroke-opacity:0.95;stroke-width:2.77px;"/>
        </g>
        <g transform="matrix(-0.04835,-0.02418,0,0.04835,155.771,58.66)">
            <rect x="1566" y="856.517" width="86.762" height="86.762" style="fill:rgb(94,59,59);"/>
        </g>
        <g transform="matrix(-0.04835,-0.02418,0,0.04835,151.5,56.001)">
            <rect x="791.193" y="856.517" width="86.762" height="86.762" style="fill:rgb(94,59,59);"/>
        </g>
        <g transform="matrix(-0.04835,-0.02418,0,0.04835,154.137,58.978)">
            <path d="M1222.99,1088.56L1037.36,751.595L1075.69,729.4L1122.1,812.127L1323.87,812.127L1370.28,729.4L1408.62,751.595L1222.99,1088.56ZM1142.28,854.499L1222.99,997.757L1303.69,854.499L1142.28,854.499Z" style="fill:rgb(94,59,59);fill-rule:nonzero;"/>
        </g>
        <g transform="matrix(-0.04835,-0.02418,0,0.04835,145.167,61.78)">
            <path d="M547.667,1527.12C699.538,1703.72 877.32,1891.19 921.035,1685.75C922.733,1672.69 930.526,1648.89 957.508,1669.94C960.31,1672.12 977.426,1702.27 977.426,1702.27C940.907,1832.86 883.325,1861.21 781.97,1803.16C748.777,1784.14 534.069,1580.58 501.272,1521.77" style="fill:rgb(94,59,59);fill-rule:nonzero;"/>
        </g>
        <g transform="matrix(-0.04835,-0.02418,0,0.04835,124.45,51.328)">
            <path d="M547.667,1527.12C699.538,1703.72 877.32,1891.19 921.035,1685.75C922.733,1672.69 930.526,1648.89 957.508,1669.94C960.31,1672.12 977.426,1702.27 977.426,1702.27C940.907,1832.86 883.325,1861.21 781.97,1803.16C748.777,1784.14 534.069,1580.58 501.272,1521.77" style="fill:rgb(94,59,59);fill-rule:nonzero;"/>
        </g>
        <g transform="matrix(-0.04835,-0.02418,0,0.04835,138.844,67.354)">
            <path d="M702.177,596.153L1214.91,598.825L1214.91,640.62L700.395,640.62L702.177,596.153Z" style="fill-rule:nonzero;"/>
        </g>
        <g transform="matrix(-0.04835,-0.02418,0,0.04835,129.178,47.138)">
            <path d="M702.177,596.153L1214.91,598.825L1214.91,640.62L700.395,640.62L702.177,596.153Z" style="fill-rule:nonzero;"/>
        </g>
        <g transform="matrix(-0.04835,-0.02418,0,0.04835,154.02,59.32)">
            <path d="M702.177,596.153L1214.91,598.825L1214.91,640.62L700.395,640.62L702.177,596.153Z" style="fill-rule:nonzero;"/>
        </g>
        <g transform="matrix(-0.04835,-0.02418,0,0.04835,154.73,109.38)">
            <path d="M702.177,596.153L1214.91,598.825L1214.91,640.62L700.395,640.62L702.177,596.153Z" style="fill:rgb(94,59,59);fill-rule:nonzero;"/>
        </g>
        <g transform="matrix(-0.04835,-0.02418,0,0.04835,129.853,96.942)">
            <path d="M702.177,596.153L1214.91,598.825L1214.91,640.62L700.395,640.62L702.177,596.153Z" style="fill:rgb(94,59,59);fill-rule:nonzero;"/>
        </g>
        <g transform="matrix(-0.0286,0.01411,0,0.04835,142.032,33.193)">
            <path d="M702.177,596.153L1214.91,598.825L1214.91,640.62L700.395,640.62L702.177,596.153Z" style="fill-rule:nonzero;"/>
        </g>
        <g transform="matrix(-0.0286,0.01411,0,0.04835,88.732,7.801)">
            <path d="M702.177,596.153L1214.91,598.825L1214.91,640.62L700.395,640.62L702.177,596.153Z" style="fill-rule:nonzero;"/>
        </g>
        <g transform="matrix(-0.0286,0.01411,0,0.04835,89.476,57.57)">
            <path d="M702.177,596.153L1214.91,598.825L1214.91,640.62L700.395,640.62L702.177,596.153Z" style="fill:rgb(94,59,59);fill-rule:nonzero;"/>
        </g>
        <g transform="matrix(-0.0286,0.01411,0,0.04835,142.805,84.235)">
            <path d="M702.177,596.153L1214.91,598.825L1214.91,640.62L700.395,640.62L702.177,596.153Z" style="fill-rule:nonzero;"/>
        </g>
        <g transform="matrix(-0.04835,-0.02418,0,0.04835,153.459,83.04)">
            <rect x="625.74" y="644.656" width="40.354" height="512.502"/>
        </g>
        <g transform="matrix(-0.04835,-0.02418,0,0.04835,153.332,57.963)">
            <rect x="625.74" y="644.656" width="40.354" height="512.502"/>
        </g>
        <g transform="matrix(-0.04835,-0.02418,0,0.04835,100.681,33.71)">
            <rect x="625.74" y="644.656" width="40.354" height="512.502" style="fill:rgb(94,59,59);"/>
        </g>
        <g transform="matrix(-0.04835,-0.02418,0,0.04835,100.681,57.321)">
            <rect x="625.74" y="644.656" width="40.354" height="512.502" style="fill:rgb(94,59,59);"/>
        </g>
        <g transform="matrix(-0.36096,0,0,0.36096,264.523,-205.205)">
            <path d="M559.503,766.807L562.27,761.699L566.982,766.597C566.687,770.912 567.652,775.968 568.059,779.66C570.498,801.809 566.514,834.695 552.677,836.725C552.677,836.725 547.945,831.406 550.706,829.606C559.219,824.056 566.961,801.086 559.503,766.807Z" style="fill:rgb(94,59,59);"/>
        </g>
        <g transform="matrix(-0.04835,-0.02418,0,0.04835,139.258,67.799)">
            <path d="M1216.93,597.043L1733.23,599.716L1731.45,640.62L1216.93,640.62L1216.93,597.043Z" style="fill-rule:nonzero;"/>
        </g>
        <path d="M116.568,95.74L115.09,93.855L113.389,95.623C113.495,97.18 113.147,99.005 113,100.338C112.12,108.333 113.558,120.203 118.552,120.936C118.552,120.936 119.737,118.701 118.853,117.905C116.353,115.655 113.227,108.989 116.568,95.739L116.568,95.74Z"/>
        <g transform="matrix(-0.04835,-0.02418,0,0.04835,139.487,67.675)">
            <rect x="1779.88" y="644.656" width="40.354" height="512.502"/>
        </g>
        <g transform="matrix(-0.04835,-0.02418,0,0.04835,136.808,66.603)">
            <path d="M664.076,1651.5L1178.6,1651.5L1178.6,1695.08L664.076,1691.51L664.076,1651.5Z" style="fill-rule:nonzero;"/>
        </g>
        <g transform="matrix(-0.04835,-0.02418,0,0.04835,136.22,65.964)">
            <path d="M1180.61,1651.5L1695.13,1651.5L1691.57,1687.95L1185.96,1695.97L1180.61,1651.5Z" style="fill-rule:nonzero;"/>
        </g>
        <g transform="matrix(-0.04835,-0.02418,0,0.04835,137.558,66.604)">
            <rect x="1737.51" y="1161.19" width="40.354" height="512.502"/>
        </g>
        <g transform="matrix(-0.681537,-0.340769,0,0.681537,121.717,86.2539)">
            <path d="M39.285,16.87C39.285,16.87 22.412,26.874 20.898,31.533C17.766,41.172 30.896,53.824 41.824,56.668C59.745,61.333 77.269,51.141 58.307,30.74C54.972,27.151 39.285,16.87 39.285,16.87Z" style="fill:url(#_Radial1);"/>
        </g>
        <g transform="matrix(-0.04835,-0.02418,0,0.04835,137.492,66.72)">
            <rect x="625.74" y="644.656" width="40.354" height="512.502"/>
        </g>
        <g transform="matrix(-0.04835,-0.02418,0,0.04835,135.443,65.173)">
            <rect x="583.367" y="1161.19" width="40.354" height="512.502"/>
        </g>
    </g>
    <defs>
        <radialGradient id="_Radial1" cx="0" cy="0" r="1" gradientUnits="userSpaceOnUse" gradientTransform="matrix(23.0357,-5.32907e-15,-1.3032e-15,20.4577,49.1754,43.9918)"><stop offset="0" style="stop-color:rgb(138,122,72);stop-opacity:1"/><stop offset="0.43" style="stop-color:rgb(129,109,71);stop-opacity:1"/><stop offset="1" style="stop-color:rgb(108,80,68);stop-opacity:1"/></radialGradient>
    </defs>
</svg>
